X:13
T: Kincses Kolozsváron van a babám háza
M:4/4
L:1/4
K:D
d/c/e/d/ A<B | A>G F<E | D2 D2 |
d/c/d/f/ e<d | e>d c<B | A2 A2 |
d/c/d/f/ e<d | edcB | A2 F2 |
d/c/e/d/ A<B | A>G F<E | D2 D2 |

